images/icons/phone-gold.svg

<svg width="16" height="16" viewBox="0 0 16 16" fill="none" xmlns="http://www.w3.org/2000/svg">
<path d="M3.37096 1.04297L1.79674 2.61719C0.933461 3.48047 0.745961 4.82422 1.36315 5.87891C2.05065 7.05859 2.61315 7.92969 4.96862 10.2812C7.32018 12.6367 7.9608 12.957 9.12096 13.6367C10.1796 14.2539 11.5194 14.0664 12.3788 13.2031L13.9569 11.6289L10.91 8.58594L9.67174 9.82422C9.52331 9.75781 9.30065 9.64062 9.04284 9.47656C8.51159 9.13672 7.8319 8.61719 7.23424 8.01562C6.63268 7.41797 6.04674 6.67187 5.64049 6.07031C5.44127 5.77344 5.28112 5.50391 5.19518 5.32812C5.19127 5.32031 5.19127 5.32031 5.18737 5.3125L6.41393 4.08594L3.37096 1.04297ZM3.37096 2.45703L4.99987 4.08594L4.28502 4.80469C4.13659 4.95312 4.12096 5.11719 4.12487 5.21094C4.12487 5.30078 4.14049 5.36328 4.15612 5.42188C4.19127 5.54297 4.23815 5.64844 4.29674 5.77344C4.41784 6.01562 4.59362 6.30469 4.81237 6.63281C5.24987 7.28125 5.86705 8.06641 6.5233 8.72656C7.18346 9.38281 7.91002 9.9375 8.50768 10.3164C8.80456 10.5078 9.06627 10.6523 9.28893 10.75C9.40221 10.8008 9.50377 10.8398 9.62487 10.8633C9.68346 10.875 9.74987 10.8828 9.83971 10.875C9.92955 10.8711 10.0702 10.8398 10.1952 10.7148L10.91 10L12.5428 11.6289L11.6717 12.5C11.1288 13.043 10.2889 13.1602 9.62487 12.7734C8.44518 12.082 7.99596 11.8984 5.67174 9.57812C3.35143 7.25391 2.90612 6.53906 2.22643 5.375C1.83971 4.71094 1.9569 3.87109 2.49987 3.32812L3.37096 2.45703Z" fill="#E4B564"/>
</svg>

<svg width="16" height="16" fill="none" xmlns="http://www.w3.org/2000/svg"><path d="M3.371 1.043L1.797 2.617a2.697 2.697 0 00-.434 3.262c.688 1.18 1.25 2.05 3.606 4.402 2.351 2.356 2.992 2.676 4.152 3.356a2.69 2.69 0 003.258-.434l1.578-1.574-3.047-3.043-1.238 1.238a5.178 5.178 0 01-.63-.347c-.53-.34-1.21-.86-1.808-1.461A13.74 13.74 0 015.64 6.07a7.061 7.061 0 01-.445-.742l-.008-.016 1.227-1.226L3.37 1.043zm0 1.414L5 4.086l-.715.719a.53.53 0 00-.16.406c0 .09.015.152.031.21.035.122.082.227.14.352.122.243.298.532.516.86a15.05 15.05 0 001.711 2.094c.66.656 1.387 1.21 1.985 1.59.297.19.558.335.78.433.114.05.216.09.337.113.058.012.125.02.215.012a.534.534 0 00.355-.16L10.91 10l1.633 1.629-.871.871a1.692 1.692 0 01-2.047.273c-1.18-.691-1.629-.875-3.953-3.195-2.32-2.324-2.766-3.039-3.446-4.203A1.692 1.692 0 012.5 3.328l.871-.871z" fill="#E4B564"/></svg>
